resources/lightbulb/images/lightbulb.svg

<?xml version="1.0" encoding="UTF-8"?>
<svg xmlns="http://www.w3.org/2000/svg" width="13" height="13" viewBox="0 0 13 13">
 	<path fill="#222" d="M5.467 12.003c-.222 0-.333.295-.185.442.333.297.592.555.813.555h.812c.22 0 .442-.223.774-.555.19-.146.08-.442-.18-.442H5.47zm2.512-.628H5.06c-.294 0-.516-.223-.516-.518s.222-.518.517-.518h2.92c.3 0 .52.22.52.51s-.22.52-.51.52zM5.02 9.713c-.26 0-.48-.186-.517-.443 0-.037-.11-.59-.702-1.438-.07-.113-.18-.262-.25-.372-.63-.886-1.26-1.81-1.26-3.398 0-.96.41-1.958 1.076-2.733C4.138.48 5.246 0 6.506 0c.29 0 .512.222.512.517s-.22.517-.517.517c-1.18 0-1.92.554-2.32.997-.51.56-.81 1.33-.81 2.07 0 1.3.52 2 1.07 2.81.08.11.19.26.26.37.74 1.07.85 1.77.85 1.85.04.3-.15.52-.44.59h-.08zm2.955 0H7.9c-.296-.037-.48-.295-.443-.59 0-.075.145-.775.85-1.848.072-.11.184-.258.26-.37.59-.81 1.07-1.55 1.07-2.805 0-.702-.334-1.478-.853-2.068-.59-.63-1.4-.998-2.29-.998-.294 0-.516-.222-.516-.517S6.208 0 6.5 0c2.512 0 4.21 2.105 4.21 4.062 0 1.588-.627 2.51-1.256 3.398-.072.11-.183.26-.257.37-.592.886-.7 1.44-.7 1.44-.04.257-.26.443-.518.443z"/>
</svg>

<?xml version="1.0" encoding="utf-8"?>
<!DOCTYPE svg PUBLIC "-//W3C//DTD SVG 1.1//EN" "http://www.w3.org/Graphics/SVG/1.1/DTD/svg11.dtd">
<svg version="1.1" id="Layer_1" xmlns="http://www.w3.org/2000/svg" xmlns:xlink="http://www.w3.org/1999/xlink" x="0px" y="0px"
	 width="13px" height="13px" viewBox="0 0 13 13" enable-background="new 0 0 13 13" xml:space="preserve">
<path fill="#444444" d="M5.467,12.003c-0.222,0-0.333,0.295-0.185,0.442C5.615,12.742,5.874,13,6.095,13h0.812
	c0.221,0,0.442-0.223,0.774-0.555c0.186-0.146,0.073-0.442-0.185-0.442H5.467z M7.979,11.375H5.061
	c-0.295,0-0.517-0.223-0.517-0.518s0.222-0.518,0.517-0.518h2.917c0.295,0,0.518,0.223,0.518,0.518S8.273,11.375,7.979,11.375z
	 M5.024,9.713c-0.259,0-0.48-0.186-0.517-0.443c0-0.037-0.111-0.59-0.702-1.438C3.731,7.719,3.621,7.57,3.547,7.46
	C2.919,6.574,2.291,5.65,2.291,4.062c0-0.96,0.406-1.958,1.071-2.733C4.138,0.48,5.246,0,6.501,0c0.295,0,0.517,0.222,0.517,0.517
	S6.797,1.034,6.501,1.034c-1.182,0-1.92,0.554-2.327,0.997C3.658,2.585,3.362,3.361,3.362,4.1c0,1.292,0.517,1.994,1.071,2.807
	c0.074,0.11,0.185,0.258,0.259,0.368c0.739,1.072,0.849,1.772,0.849,1.847c0.037,0.295-0.147,0.517-0.443,0.591
	C5.061,9.713,5.061,9.713,5.024,9.713z M7.979,9.713c-0.037,0-0.037,0-0.074,0C7.609,9.676,7.425,9.418,7.462,9.122
	c0-0.074,0.146-0.774,0.849-1.847c0.074-0.111,0.186-0.258,0.26-0.369c0.592-0.812,1.07-1.551,1.07-2.806
	c0-0.702-0.332-1.478-0.851-2.068C8.201,1.403,7.389,1.034,6.501,1.034c-0.295,0-0.517-0.222-0.517-0.517S6.206,0,6.501,0
	c2.511,0,4.209,2.105,4.209,4.062c0,1.588-0.627,2.511-1.256,3.398C9.382,7.57,9.271,7.719,9.197,7.83
	C8.605,8.716,8.496,9.27,8.496,9.27C8.458,9.527,8.236,9.713,7.979,9.713z"/>
</svg>
